Numix-GalliumOS/64/categories/preferences-system-network-proxy.svg

<?xml version="1.0" encoding="UTF-8" standalone="no"?>
<svg
   xmlns:dc="http://purl.org/dc/elements/1.1/"
   xmlns:cc="http://creativecommons.org/ns#"
   xmlns:rdf="http://www.w3.org/1999/02/22-rdf-syntax-ns#"
   xmlns:svg="http://www.w3.org/2000/svg"
   xmlns="http://www.w3.org/2000/svg"
   xmlns:sodipodi="http://sodipodi.sourceforge.net/DTD/sodipodi-0.dtd"
   xmlns:inkscape="http://www.inkscape.org/namespaces/inkscape"
   width="64"
   height="64"
   viewBox="0 0 64 64"
   id="svg2"
   version="1.1"
   inkscape:version="0.91 r"
   sodipodi:docname="preferences-system-network-proxy.svg">
  <metadata
     id="metadata28">
    <rdf:RDF>
      <cc:Work
         rdf:about="">
        <dc:format>image/svg+xml</dc:format>
        <dc:type
           rdf:resource="http://purl.org/dc/dcmitype/StillImage" />
        <dc:title />
      </cc:Work>
    </rdf:RDF>
  </metadata>
  <defs
     id="defs26" />
  <sodipodi:namedview
     pagecolor="#ffffff"
     bordercolor="#666666"
     borderopacity="1"
     objecttolerance="10"
     gridtolerance="10"
     guidetolerance="10"
     inkscape:pageopacity="0"
     inkscape:pageshadow="2"
     inkscape:window-width="1920"
     inkscape:window-height="1056"
     id="namedview24"
     showgrid="true"
     inkscape:zoom="14.75"
     inkscape:cx="28.513091"
     inkscape:cy="36.786721"
     inkscape:window-x="0"
     inkscape:window-y="24"
     inkscape:window-maximized="1"
     inkscape:current-layer="svg2">
    <inkscape:grid
       type="xygrid"
       id="grid4156" />
  </sodipodi:namedview>
  <path
     style="fill:#e78684;fill-opacity:1"
     d="M 32 7 C 28.120616 7 24.444728 7.8869205 21.166016 9.46875 L 21.015625 9.4140625 C 20.995928 9.4675078 20.980504 9.5226703 20.960938 9.5761719 C 12.696316 13.658683 7 22.170566 7 32 C 7 41.838138 12.70593 50.357284 20.982422 54.435547 C 21.005192 54.488315 21.023912 54.543032 21.046875 54.595703 L 21.181641 54.537109 C 24.456576 56.11443 28.126506 57 32 57 C 35.875041 57 39.546338 56.113661 42.822266 54.535156 L 42.960938 54.595703 C 42.984445 54.541705 43.004037 54.485741 43.027344 54.431641 C 51.298754 50.351557 57 41.834413 57 32 C 57 22.174291 51.308369 13.664402 43.048828 9.5800781 C 43.028796 9.5252105 43.012355 9.4688709 42.992188 9.4140625 L 42.837891 9.4707031 C 39.558183 7.8876834 35.880937 7 32 7 z M 30.5 10.056641 L 30.5 18 L 23.673828 18 C 22.801344 18 22 18.740354 22 19.667969 L 22 20 L 21.128906 20 C 21.700717 17.209269 22.452427 14.453648 23.378906 11.763672 C 25.590235 10.822816 27.983862 10.225382 30.5 10.056641 z M 33.5 10.056641 C 36.013985 10.225803 38.412655 10.810054 40.623047 11.75 C 41.549932 14.443254 42.293659 17.206736 42.865234 20 L 42 20 L 42 19.667969 C 42 18.740354 41.198656 18 40.326172 18 L 33.5 18 L 33.5 10.056641 z M 44.439453 13.84375 C 46.823426 15.478252 48.860164 17.575941 50.439453 20 L 45.9375 20 C 45.530103 17.928236 45.033881 15.870922 44.439453 13.84375 z M 19.566406 13.847656 C 18.971269 15.874646 18.464468 17.927956 18.056641 20 L 13.554688 20 C 15.134405 17.573537 17.181185 15.48256 19.566406 13.847656 z M 25 21 L 39 21 L 39 43 L 25 43 L 25 21 z M 11.919922 23 L 17.535156 23 C 17.158044 25.494198 16.92287 28.00046 16.830078 30.5 L 10.056641 30.5 C 10.234958 27.841072 10.883394 25.314768 11.919922 23 z M 20.583984 23 L 22 23 L 22 30.5 L 19.847656 30.5 C 19.943718 28.002782 20.191867 25.495326 20.583984 23 z M 42 23 L 43.404297 23 C 43.795872 25.495539 44.045077 28.002852 44.140625 30.5 L 42 30.5 L 42 23 z M 46.464844 23 L 52.078125 23 C 53.115416 25.314923 53.768857 27.84048 53.947266 30.5 L 47.164062 30.5 C 47.071303 28.001345 46.841521 25.493552 46.464844 23 z M 35 30 A 2 2 0 0 0 33 32 A 2 2 0 0 0 35 34 A 2 2 0 0 0 37 32 A 2 2 0 0 0 35 30 z M 10.056641 33.5 L 16.791016 33.5 C 16.815993 36.025826 16.97704 38.533676 17.3125 41 L 11.919922 41 C 10.883394 38.685232 10.234958 36.158928 10.056641 33.5 z M 19.808594 33.5 L 22 33.5 L 22 41 L 20.363281 41 C 20.012592 38.542696 19.835038 36.033226 19.808594 33.5 z M 42 33.5 L 44.177734 33.5 C 44.150813 36.033976 43.966464 38.54186 43.615234 41 L 42 41 L 42 33.5 z M 47.203125 33.5 L 53.947266 33.5 C 53.768745 36.158744 53.119308 38.686095 52.082031 41 L 46.671875 41 C 47.007139 38.533425 47.178202 36.025905 47.203125 33.5 z M 13.554688 44 L 17.804688 44 C 18.195402 46.03629 18.711118 48.03169 19.332031 49.982422 C 17.048595 48.372657 15.08163 46.345399 13.554688 44 z M 20.884766 44 L 22 44 L 22 44.332031 C 22 45.259646 22.801344 46 23.673828 46 L 30.5 46 L 30.5 53.943359 C 27.963386 53.773245 25.550469 53.169116 23.324219 52.214844 C 22.273134 49.594545 21.459967 46.843718 20.884766 44 z M 42 44 L 43.095703 44 C 42.520208 46.843873 41.726735 49.605245 40.675781 52.226562 C 38.450753 53.179691 36.033959 53.772651 33.5 53.943359 L 33.5 46 L 40.326172 46 C 41.198656 46 42 45.259646 42 44.332031 L 42 44 z M 46.179688 44 L 50.4375 44 C 48.909966 46.343014 46.955101 48.380869 44.671875 49.990234 C 45.292336 48.039209 45.789247 46.036148 46.179688 44 z "
     id="path6" />
</svg>

<svg xmlns="http://www.w3.org/2000/svg" viewBox="0 0 64 64">
 <path d="m 32 7 c -3.879 0 -7.555 0.887 -10.834 2.469 l -0.15 -0.055 c -0.02 0.053 -0.035 0.109 -0.055 0.162 c -8.265 4.083 -13.961 12.594 -13.961 22.424 c 0 9.838 5.706 18.357 13.982 22.436 c 0.023 0.053 0.041 0.107 0.064 0.16 l 0.135 -0.059 c 3.275 1.577 6.945 2.463 10.818 2.463 c 3.875 0 7.546 -0.886 10.822 -2.465 l 0.139 0.061 c 0.024 -0.054 0.043 -0.11 0.066 -0.164 c 8.271 -4.08 13.973 -12.597 13.973 -22.432 c 0 -9.826 -5.692 -18.336 -13.951 -22.42 c -0.02 -0.055 -0.036 -0.111 -0.057 -0.166 l -0.154 0.057 c -3.28 -1.583 -6.957 -2.471 -10.838 -2.471 z m -1.5 3.057 l 0 7.943 l -6.826 0 c -0.872 0 -1.674 0.74 -1.674 1.668 l 0 0.332 l -0.871 0 c 0.572 -2.791 1.324 -5.546 2.25 -8.236 c 2.211 -0.941 4.605 -1.538 7.121 -1.707 z m 3 0 c 2.514 0.169 4.913 0.753 7.123 1.693 c 0.927 2.693 1.671 5.457 2.242 8.25 l -0.865 0 l 0 -0.332 c 0 -0.928 -0.801 -1.668 -1.674 -1.668 l -6.826 0 l 0 -7.943 z m 10.939 3.787 c 2.384 1.635 4.421 3.732 6 6.156 l -4.502 0 c -0.407 -2.072 -0.904 -4.129 -1.498 -6.156 z m -24.873 0.004 c -0.595 2.027 -1.102 4.08 -1.51 6.152 l -4.502 0 c 1.58 -2.426 3.626 -4.517 6.01 -6.152 z m 5.434 7.152 l 14 0 l 0 22 l -14 0 l 0 -22 z m -13.08 2 l 5.615 0 c -0.377 2.494 -0.612 5 -0.705 7.5 l -6.773 0 c 0.178 -2.659 0.827 -5.185 1.863 -7.5 z m 8.664 0 l 1.416 0 l 0 7.5 l -2.152 0 c 0.096 -2.497 0.344 -5 0.736 -7.5 z m 21.416 0 l 1.404 0 c 0.392 2.496 0.641 5 0.736 7.5 l -2.141 0 l 0 -7.5 z m 4.465 0 l 5.613 0 c 1.037 2.315 1.691 4.84 1.869 7.5 l -6.783 0 c -0.093 -2.499 -0.323 -5.01 -0.699 -7.5 z m -11.465 7 a 2 2 0 0 0 -2 2 a 2 2 0 0 0 2 2 a 2 2 0 0 0 2 -2 a 2 2 0 0 0 -2 -2 z m -24.943 3.5 l 6.734 0 c 0.025 2.526 0.186 5.03 0.521 7.5 l -5.393 0 c -1.037 -2.315 -1.685 -4.841 -1.863 -7.5 z m 9.752 0 l 2.191 0 l 0 7.5 l -1.637 0 c -0.351 -2.457 -0.528 -4.967 -0.555 -7.5 z m 22.19 0 l 2.178 0 c -0.027 2.534 -0.211 5.04 -0.563 7.5 l -1.615 0 l 0 -7.5 z m 5.203 0 l 6.744 0 c -0.179 2.659 -0.828 5.186 -1.865 7.5 l -5.41 0 c 0.335 -2.467 0.506 -4.974 0.531 -7.5 z m -33.648 10.5 l 4.25 0 c 0.391 2.036 0.906 4.03 1.527 5.982 c -2.283 -1.61 -4.25 -3.637 -5.777 -5.982 z m 7.33 0 l 1.115 0 l 0 0.332 c 0 0.928 0.801 1.668 1.674 1.668 l 6.826 0 l 0 7.943 c -2.537 -0.17 -4.95 -0.774 -7.176 -1.729 c -1.051 -2.62 -1.864 -5.371 -2.439 -8.215 z m 21.12 0 l 1.096 0 c -0.575 2.844 -1.369 5.605 -2.42 8.227 c -2.225 0.953 -4.642 1.546 -7.176 1.717 l 0 -7.943 l 6.826 0 c 0.872 0 1.674 -0.74 1.674 -1.668 l 0 -0.332 z m 4.18 0 l 4.258 0 c -1.528 2.343 -3.482 4.381 -5.766 5.99 c 0.62 -1.951 1.117 -3.954 1.508 -5.99 z" style="fill:#e78684;fill-opacity:1"/>
</svg>
